apps/scalable/xnretro.svg

<svg xmlns="http://www.w3.org/2000/svg" style="isolation:isolate" width="256" height="256"><defs><filter id="a" width="270.648" height="254.338" x="-7.32" y="2.95" filterUnits="userSpaceOnUse"><feGaussianBlur xmlns="http://www.w3.org/2000/svg" in="SourceGraphic" stdDeviation="4.294"/><feOffset xmlns="http://www.w3.org/2000/svg" dy="4" result="pf_100_offsetBlur"/><feFlood xmlns="http://www.w3.org/2000/svg" flood-opacity=".4"/><feComposite xmlns="http://www.w3.org/2000/svg" in2="pf_100_offsetBlur" operator="in" result="pf_100_dropShadow"/><feBlend xmlns="http://www.w3.org/2000/svg" in="SourceGraphic" in2="pf_100_dropShadow"/></filter></defs><g filter="url(#a)"><linearGradient id="b" x1=".233" x2=".933" y1="-.071" y2=".995" gradientTransform="matrix(244.648 0 0 228.338 5.676 11.947)" gradientUnits="userSpaceOnUse"><stop offset="0%" stop-color="#e8e8e8"/><stop offset="100%" stop-color="#f5f5f5"/></linearGradient><path fill="url(#b)" d="M165.685 11.947c74.055 0 84.639 10.557 84.639 84.544v59.251c0 73.986-10.584 84.543-84.639 84.543h-75.37c-74.055 0-84.639-10.557-84.639-84.543V96.491c0-73.987 10.584-84.544 84.639-84.544h75.37z"/></g><path fill="#FFC42E" d="M223.246 233.696c.566-.231 1.221-.404 1.764-.65a39.619 39.619 0 0 0 5.855-3.248 33.342 33.342 0 0 0 4.91-4.037 33.261 33.261 0 0 0 4.043-4.905 39.5 39.5 0 0 0 3.252-5.847c.961-2.116 1.803-4.402 2.539-6.872.737-2.469 1.367-5.122 1.905-7.97.537-2.849.981-5.893 1.345-9.147.365-3.253.649-6.715.866-10.4.434-7.369.599-15.627.599-24.875V96.493c0-9.248-.165-17.506-.599-24.875a197.869 197.869 0 0 0-.866-10.4c-.364-3.254-.808-6.298-1.345-9.147-.538-2.848-1.168-5.501-1.905-7.971-.736-2.469-1.578-4.755-2.539-6.871a39.5 39.5 0 0 0-3.252-5.847 33.261 33.261 0 0 0-4.043-4.905 33.279 33.279 0 0 0-4.91-4.037 39.619 39.619 0 0 0-5.855-3.248c-2.118-.959-4.407-1.8-6.879-2.535-2.472-.735-5.127-1.366-7.979-1.902-2.851-.537-5.899-.98-9.156-1.344a198.576 198.576 0 0 0-10.412-.863c-7.377-.434-15.641-.598-24.898-.598h-35.082C86.761 33.689 52.652 80.462 52.652 128.212c0-16.855 24.045 39.593 37.17 30.642 14.603-9.958 19.298-84.371 38.051-84.371a64.173 64.173 0 0 1 6.443.315c.029.001.056.019.082.019 62.229 3.407 100.932 44.043 100.932 107.121 0 18.592-4.433 36.109-12.084 51.758z"/><path fill="#FF8514" d="M20.156 225.679c.025.025.044.057.069.082a33.342 33.342 0 0 0 4.91 4.037 39.619 39.619 0 0 0 5.855 3.248c2.118.959 4.407 1.8 6.879 2.535 2.472.735 5.127 1.366 7.979 1.902 2.851.537 5.899.98 9.156 1.344 3.257.364 6.724.647 10.412.863 7.377.433 15.641.598 24.898.598h75.372c9.257 0 17.521-.165 24.898-.598 3.688-.216 7.155-.499 10.412-.863 3.257-.364 6.305-.807 9.156-1.344 2.852-.536 5.507-1.167 7.979-1.902 2.472-.735 4.761-1.576 6.879-2.535a39.619 39.619 0 0 0 5.855-3.248 33.342 33.342 0 0 0 4.91-4.037c1.23-1.229 2.303-2.622 3.342-4.055 4.552-12.733 6.959-26.171 6.959-39.768 0-63.1-49.483-114.491-111.74-117.867l.002.002c31.331 3.302 47.264 30.756 47.264 64.139a64.485 64.485 0 0 1-.315 6.443c-.001.019-.02.062-.023.082-3.406 62.228-44.043 100.93-107.121 100.93-18.786 0-36.486-4.501-52.258-12.299a143 143 0 0 0 .818 1.471c-1.025.271-1.682.56-2.547.84z"/><path fill="#FF5757" d="M21.85 25.141c-.525.461-1.133.845-1.625 1.336a33.261 33.261 0 0 0-4.043 4.905 39.5 39.5 0 0 0-3.252 5.847c-.961 2.116-1.803 4.402-2.539 6.871-.737 2.47-1.367 5.123-1.905 7.971-.537 2.849-.981 5.893-1.345 9.147a197.869 197.869 0 0 0-.866 10.4c-.434 7.369-.599 15.627-.599 24.875v59.252c0 9.248.165 17.506.599 24.875.217 3.685.501 7.147.866 10.4.364 3.254.808 6.298 1.345 9.147.538 2.848 1.168 5.501 1.905 7.97.736 2.47 1.578 4.756 2.539 6.872a39.5 39.5 0 0 0 3.252 5.847 33.261 33.261 0 0 0 4.043 4.905 33.342 33.342 0 0 0 4.91 4.037 39.619 39.619 0 0 0 5.855 3.248c2.118.959 4.407 1.8 6.879 2.535 2.472.735 5.127 1.366 7.979 1.902 2.851.537 5.899.98 9.156 1.344 3.257.364 6.724.647 10.412.863 7.377.433 15.641.598 24.898.598h21.102c44.98-14.987 77.918-56.227 80.596-105.611-3.302 31.33-30.756 47.263-64.139 47.263a64.172 64.172 0 0 1-6.443-.314c-.029-.002-.058-.02-.084-.02-62.228-3.406-100.93-44.042-100.93-107.121 0-17.351 1.231-44.88 1.434-49.344z"/><path fill="#BAFF41" d="M160.645 11.95H90.314c-9.257 0-17.521.164-24.898.598-3.688.216-7.155.499-10.412.863-3.257.364-6.305.807-9.156 1.344-2.852.536-5.507 1.167-7.979 1.902-2.472.735-4.761 1.576-6.879 2.535a39.619 39.619 0 0 0-5.855 3.248 33.279 33.279 0 0 0-4.91 4.037c-.112.112-.195.256-.305.369-6.623 15.01-10.249 31.185-10.25 47.639 0 65.282 52.921 118.203 118.203 118.203v-.002c-12.544 0 38.162-9.363 28.604-15.56-17.574-11.395-90.93-25.85-90.93-48.914-.003-2.152-2.047-4.302-1.834-6.444.001-.019.02-.061.023-.082 3.02-55.161 43.763-100.2 96.909-109.736z"/><path fill="#555" d="M197 126.619a68.501 68.501 0 0 1-116.937 48.437 68.501 68.501 0 0 1 96.874-96.874A68.501 68.501 0 0 1 197 126.619z"/><g opacity=".4"><linearGradient id="c" x1=".517" x2=".517" y2="1"><stop offset="0%" stop-color="#fff"/><stop offset="12.5%" stop-opacity=".098" stop-color="#fff"/><stop offset="92.5%" stop-opacity=".098"/><stop offset="100%" stop-opacity=".498"/></linearGradient><path fill="none" stroke="url(#c)" stroke-linecap="round" stroke-linejoin="round" stroke-width="4.077" d="M165.685 11.947c74.055 0 84.639 10.557 84.639 84.544v59.251c0 73.986-10.584 84.543-84.639 84.543h-75.37c-74.055 0-84.639-10.557-84.639-84.543V96.491c0-73.987 10.584-84.544 84.639-84.544h75.37z" vector-effect="non-scaling-stroke"/></g><g opacity=".1"><path fill="#FFF" d="M5.676 126.116v29.626c0 73.986 10.584 84.543 84.639 84.543h75.37c74.055 0 84.639-10.557 84.639-84.543v-29.626H5.676z"/></g></svg>

<svg xmlns="http://www.w3.org/2000/svg" style="isolation:isolate" width="256" height="256" viewBox="0 0 256 256">
 <defs>
  <filter id="v6ZH6dIzTDG8EYNNoAZ4Em0DBAQt4j1p" width="270.648" height="254.338" x="-7.32" y="2.95" filterUnits="userSpaceOnUse">
   <feGaussianBlur xmlns="http://www.w3.org/2000/svg" in="SourceGraphic" stdDeviation="4.294"/>
   <feOffset xmlns="http://www.w3.org/2000/svg" dx="0" dy="4" result="pf_100_offsetBlur"/>
   <feFlood xmlns="http://www.w3.org/2000/svg" flood-opacity=".4"/>
   <feComposite xmlns="http://www.w3.org/2000/svg" in2="pf_100_offsetBlur" operator="in" result="pf_100_dropShadow"/>
   <feBlend xmlns="http://www.w3.org/2000/svg" in="SourceGraphic" in2="pf_100_dropShadow" mode="normal"/>
  </filter>
 </defs>
 <g filter="url(#v6ZH6dIzTDG8EYNNoAZ4Em0DBAQt4j1p)">
  <linearGradient id="_lgradient_55" x1=".233" x2=".933" y1="-.071" y2=".995" gradientTransform="matrix(244.648,0,0,228.338,5.676,11.947)" gradientUnits="userSpaceOnUse">
   <stop offset="0%" style="stop-color:rgb(232,232,232)"/>
   <stop offset="100%" style="stop-color:rgb(245,245,245)"/>
  </linearGradient>
  <path fill="url(#_lgradient_55)" d="M 165.685 11.947 C 239.74 11.947 250.324 22.504 250.324 96.491 L 250.324 155.742 C 250.324 229.728 239.74 240.285 165.685 240.285 L 90.315 240.285 C 16.26 240.285 5.676 229.728 5.676 155.742 L 5.676 96.491 C 5.676 22.504 16.26 11.947 90.315 11.947 L 165.685 11.947 Z"/>
 </g>
 <g>
  <path fill="#FFC42E" d="M 223.246 233.696 C 223.812 233.465 224.467 233.292 225.01 233.046 C 227.128 232.086 229.075 231.008 230.865 229.798 C 232.655 228.588 234.288 227.246 235.775 225.761 C 237.263 224.275 238.607 222.644 239.818 220.856 C 241.03 219.068 242.109 217.124 243.07 215.009 C 244.031 212.893 244.873 210.607 245.609 208.137 C 246.346 205.668 246.976 203.015 247.514 200.167 C 248.051 197.318 248.495 194.274 248.859 191.02 C 249.224 187.767 249.508 184.305 249.725 180.62 C 250.159 173.251 250.324 164.993 250.324 155.745 L 250.324 96.493 C 250.324 87.245 250.159 78.987 249.725 71.618 C 249.508 67.933 249.224 64.471 248.859 61.218 C 248.495 57.964 248.051 54.92 247.514 52.071 C 246.976 49.223 246.346 46.57 245.609 44.1 C 244.873 41.631 244.031 39.345 243.07 37.229 C 242.109 35.114 241.03 33.17 239.818 31.382 C 238.607 29.594 237.263 27.963 235.775 26.477 C 234.288 24.991 232.655 23.65 230.865 22.44 C 229.075 21.23 227.128 20.152 225.01 19.192 C 222.892 18.233 220.603 17.392 218.131 16.657 C 215.659 15.922 213.004 15.291 210.152 14.755 C 207.301 14.218 204.253 13.775 200.996 13.411 C 197.739 13.047 194.272 12.764 190.584 12.548 C 183.207 12.114 174.943 11.95 165.686 11.95 L 130.604 11.95 C 86.761 33.689 52.652 80.462 52.652 128.212 C 52.652 111.357 76.697 167.805 89.822 158.854 C 104.425 148.896 109.12 74.483 127.873 74.483 C 130.025 74.481 132.175 74.584 134.316 74.798 C 134.345 74.799 134.372 74.817 134.398 74.817 C 196.627 78.224 235.33 118.86 235.33 181.938 C 235.33 200.53 230.897 218.047 223.246 233.696 Z"/>
  <path fill="#FF8514" d="M 20.156 225.679 C 20.181 225.704 20.2 225.736 20.225 225.761 C 21.712 227.246 23.345 228.588 25.135 229.798 C 26.925 231.008 28.872 232.086 30.99 233.046 C 33.108 234.005 35.397 234.846 37.869 235.581 C 40.341 236.316 42.996 236.947 45.848 237.483 C 48.699 238.02 51.747 238.463 55.004 238.827 C 58.261 239.191 61.728 239.474 65.416 239.69 C 72.793 240.123 81.057 240.288 90.314 240.288 L 165.686 240.288 C 174.943 240.288 183.207 240.123 190.584 239.69 C 194.272 239.474 197.739 239.191 200.996 238.827 C 204.253 238.463 207.301 238.02 210.152 237.483 C 213.004 236.947 215.659 236.316 218.131 235.581 C 220.603 234.846 222.892 234.005 225.01 233.046 C 227.128 232.086 229.075 231.008 230.865 229.798 C 232.655 228.588 234.288 227.246 235.775 225.761 C 237.005 224.532 238.078 223.139 239.117 221.706 C 243.669 208.973 246.076 195.535 246.076 181.938 C 246.076 118.838 196.593 67.447 134.336 64.071 L 134.338 64.073 C 165.669 67.375 181.602 94.829 181.602 128.212 C 181.604 130.363 181.5 132.514 181.287 134.655 C 181.286 134.674 181.267 134.717 181.264 134.737 C 177.858 196.965 137.221 235.667 74.143 235.667 C 55.357 235.667 37.657 231.166 21.885 223.368 C 22.154 223.859 22.427 224.349 22.703 224.839 C 21.678 225.11 21.021 225.399 20.156 225.679 Z"/>
  <path fill="#FF5757" d="M 21.85 25.141 C 21.325 25.602 20.717 25.986 20.225 26.477 C 18.737 27.963 17.393 29.594 16.182 31.382 C 14.97 33.17 13.891 35.114 12.93 37.229 C 11.969 39.345 11.127 41.631 10.391 44.1 C 9.654 46.57 9.024 49.223 8.486 52.071 C 7.949 54.92 7.505 57.964 7.141 61.218 C 6.776 64.471 6.492 67.933 6.275 71.618 C 5.841 78.987 5.676 87.245 5.676 96.493 L 5.676 155.745 C 5.676 164.993 5.841 173.251 6.275 180.62 C 6.492 184.305 6.776 187.767 7.141 191.02 C 7.505 194.274 7.949 197.318 8.486 200.167 C 9.024 203.015 9.654 205.668 10.391 208.137 C 11.127 210.607 11.969 212.893 12.93 215.009 C 13.891 217.124 14.97 219.068 16.182 220.856 C 17.393 222.644 18.737 224.275 20.225 225.761 C 21.712 227.246 23.345 228.588 25.135 229.798 C 26.925 231.008 28.872 232.086 30.99 233.046 C 33.108 234.005 35.397 234.846 37.869 235.581 C 40.341 236.316 42.996 236.947 45.848 237.483 C 48.699 238.02 51.747 238.463 55.004 238.827 C 58.261 239.191 61.728 239.474 65.416 239.69 C 72.793 240.123 81.057 240.288 90.314 240.288 L 111.416 240.288 C 156.396 225.301 189.334 184.061 192.012 134.677 C 188.71 166.007 161.256 181.94 127.873 181.94 C 125.721 181.943 123.571 181.839 121.43 181.626 C 121.401 181.624 121.372 181.606 121.346 181.606 C 59.118 178.2 20.416 137.564 20.416 74.485 C 20.416 57.134 21.647 29.605 21.85 25.141 Z"/>
  <path fill="#BAFF41" d="M 160.645 11.95 L 90.314 11.95 C 81.057 11.95 72.793 12.114 65.416 12.548 C 61.728 12.764 58.261 13.047 55.004 13.411 C 51.747 13.775 48.699 14.218 45.848 14.755 C 42.996 15.291 40.341 15.922 37.869 16.657 C 35.397 17.392 33.108 18.233 30.99 19.192 C 28.872 20.152 26.925 21.23 25.135 22.44 C 23.345 23.65 21.712 24.991 20.225 26.477 C 20.113 26.589 20.03 26.733 19.92 26.846 C 13.297 41.856 9.671 58.031 9.67 74.485 C 9.67 139.767 62.591 192.688 127.873 192.688 L 127.873 192.686 C 115.329 192.686 166.035 183.323 156.477 177.126 C 138.903 165.731 65.547 151.276 65.547 128.212 C 65.544 126.06 63.5 123.91 63.713 121.768 C 63.714 121.749 63.733 121.707 63.736 121.686 C 66.756 66.525 107.499 21.486 160.645 11.95 Z"/>
  <path fill="#555555" d="M 197 126.619 C 197 144.786 189.783 162.21 176.937 175.056 C 164.091 187.902 146.667 195.119 128.5 195.119 C 110.333 195.119 92.909 187.902 80.063 175.056 C 67.217 162.21 60 144.786 60 126.619 C 60 108.452 67.217 91.028 80.063 78.182 C 92.909 65.336 110.333 58.119 128.5 58.119 C 146.667 58.119 164.091 65.336 176.937 78.182 C 189.783 91.028 197 108.452 197 126.619 Z"/>
 </g>
 <g opacity=".4">
  <linearGradient id="_lgradient_56" x1=".517" x2=".517" y1="0" y2="1">
   <stop offset="0%" style="stop-color:rgb(255,255,255)"/>
   <stop offset="12.5%" stop-opacity=".098" style="stop-color:rgb(255,255,255)"/>
   <stop offset="92.5%" stop-opacity=".098" style="stop-color:rgb(0,0,0)"/>
   <stop offset="100%" stop-opacity=".498" style="stop-color:rgb(0,0,0)"/>
  </linearGradient>
  <path fill="none" stroke="url(#_lgradient_56)" stroke-linecap="round" stroke-linejoin="round" stroke-width="4.077" d="M 165.685 11.947 C 239.74 11.947 250.324 22.504 250.324 96.491 L 250.324 155.742 C 250.324 229.728 239.74 240.285 165.685 240.285 L 90.315 240.285 C 16.26 240.285 5.676 229.728 5.676 155.742 L 5.676 96.491 C 5.676 22.504 16.26 11.947 90.315 11.947 L 165.685 11.947 Z" vector-effect="non-scaling-stroke"/>
 </g>
 <g opacity=".1">
  <path fill="#FFFFFF" d="M 5.676 126.116 L 5.676 155.742 C 5.676 229.728 16.26 240.285 90.315 240.285 L 165.685 240.285 C 239.74 240.285 250.324 229.728 250.324 155.742 L 250.324 126.116 L 5.676 126.116 Z"/>
 </g>
</svg>
